logo-border/visa.svg

<svg xmlns="http://www.w3.org/2000/svg" fill="none" viewBox="0 0 780 500"><g clip-path="url(#a)"><path fill="#fff" stroke="#000" stroke-width="15" d="M780 0H0v500h780V0Z"/><path fill="#1434CB" d="M489.828 143.11c-46.835 0-88.69 24.282-88.69 69.146 0 51.45 74.231 55.003 74.231 80.851 0 10.883-12.469 20.625-33.765 20.625-30.223 0-52.811-13.613-52.811-13.613l-9.666 45.272s26.022 11.499 60.57 11.499c51.206 0 91.499-25.475 91.499-71.105 0-54.367-74.54-57.815-74.54-81.805 0-8.525 10.236-17.867 31.471-17.867 23.959 0 43.507 9.9 43.507 9.9l9.459-43.725s-21.269-9.178-51.265-9.178Zm-428.4986 3.3-1.1341 6.6s19.7037 3.607 37.4501 10.802c22.8496 8.251 24.4776 13.055 28.3256 27.973l41.935 161.702h56.214l86.602-207.077h-56.085L198.99 287.203 176.283 167.86c-2.082-13.659-12.631-21.45-25.542-21.45H61.3294Zm271.9456 0-43.997 207.077h53.482l43.842-207.077h-53.327Zm298.286 0c-12.896 0-19.729 6.906-24.743 18.975l-78.354 188.102h56.085l10.851-31.35h68.328l6.598 31.35h49.487L676.641 146.41h-45.08Zm7.294 55.946 16.625 77.705h-44.538l27.913-77.705Z"/></g><defs><clipPath id="a"><path fill="#fff" d="M0 0h780v500H0z"/></clipPath></defs></svg>

<svg width="780" height="500" viewBox="0 0 780 500" fill="none" xmlns="http://www.w3.org/2000/svg">
<g clip-path="url(#clip0_6278_125922)">
<path d="M780 0H0V500H780V0Z" fill="white" stroke="black" stroke-width="15"/>
<path d="M489.828 143.11C442.993 143.11 401.138 167.392 401.138 212.256C401.138 263.706 475.369 267.259 475.369 293.107C475.369 303.99 462.9 313.732 441.604 313.732C411.381 313.732 388.793 300.119 388.793 300.119L379.127 345.391C379.127 345.391 405.149 356.89 439.697 356.89C490.903 356.89 531.196 331.415 531.196 285.785C531.196 231.418 456.656 227.97 456.656 203.98C456.656 195.455 466.892 186.113 488.127 186.113C512.086 186.113 531.634 196.013 531.634 196.013L541.093 152.288C541.093 152.288 519.824 143.11 489.828 143.11ZM61.3294 146.41L60.1953 153.01C60.1953 153.01 79.899 156.617 97.6454 163.812C120.495 172.063 122.123 176.867 125.971 191.785L167.906 353.487H224.12L310.722 146.41H254.637L198.99 287.203L176.283 167.86C174.201 154.201 163.652 146.41 150.741 146.41H61.3294ZM333.275 146.41L289.278 353.487H342.76L386.602 146.41H333.275ZM631.561 146.41C618.665 146.41 611.832 153.316 606.818 165.385L528.464 353.487H584.549L595.4 322.137H663.728L670.326 353.487H719.813L676.641 146.41H631.561ZM638.855 202.356L655.48 280.061H610.942L638.855 202.356Z" fill="#1434CB"/>
</g>
<defs>
<clipPath id="clip0_6278_125922">
<rect width="780" height="500" fill="white"/>
</clipPath>
</defs>
</svg>
